markets/GRT.svg

<svg width="43" height="43" viewBox="0 0 43 43" fill="none" xmlns="http://www.w3.org/2000/svg">
<path d="M21.8039 42.957C33.4019 42.957 42.8039 33.555 42.8039 21.957C42.8039 10.359 33.4019 0.95697 21.8039 0.95697C10.2059 0.95697 0.803894 10.359 0.803894 21.957C0.803894 33.555 10.2059 42.957 21.8039 42.957Z" fill="#6747ED"/>
<path fill-rule="evenodd" clip-rule="evenodd" d="M21.4977 24.6695C18.3914 24.6695 15.8977 22.1757 15.8977 19.0695C15.8977 15.9632 18.3914 13.4695 21.4977 13.4695C24.6039 13.4695 27.0977 15.9632 27.0977 19.0695C27.0977 22.1757 24.6039 24.6695 21.4977 24.6695ZM21.4977 10.6695C26.1352 10.6695 29.8977 14.432 29.8977 19.0695C29.8977 23.707 26.1352 27.4695 21.4977 27.4695C16.8602 27.4695 13.0977 23.707 13.0977 19.0695C13.0977 14.432 16.8602 10.6695 21.4977 10.6695ZM29.5039 27.907C30.0727 28.4757 30.0727 29.3507 29.5039 29.8757L23.9039 35.4757C23.3352 36.0445 22.4602 36.0445 21.9352 35.4757C21.3664 34.907 21.3664 34.032 21.9352 33.507L27.5352 27.907C28.0602 27.3382 28.9789 27.3382 29.5039 27.907ZM32.7414 12.0695C32.7414 12.857 32.1289 13.4695 31.3414 13.4695C30.5539 13.4695 29.9414 12.857 29.9414 12.0695C29.9414 11.282 30.5539 10.6695 31.3414 10.6695C32.0852 10.6695 32.7414 11.282 32.7414 12.0695Z" fill="white"/>
</svg>

<svg xmlns="http://www.w3.org/2000/svg" width="43" height="43" fill="none"><path fill="#6747ED" d="M21.804 42.957c11.598 0 21-9.402 21-21s-9.402-21-21-21-21 9.402-21 21 9.402 21 21 21Z"/><path fill="#fff" fill-rule="evenodd" d="M21.498 24.67a5.583 5.583 0 0 1-5.6-5.6c0-3.107 2.493-5.6 5.6-5.6 3.106 0 5.6 2.493 5.6 5.6 0 3.106-2.494 5.6-5.6 5.6Zm0-14c4.637 0 8.4 3.762 8.4 8.4 0 4.637-3.763 8.4-8.4 8.4a8.402 8.402 0 0 1-8.4-8.4c0-4.638 3.762-8.4 8.4-8.4Zm8.006 17.237c.569.569.569 1.444 0 1.969l-5.6 5.6c-.569.569-1.444.569-1.969 0-.569-.569-.569-1.444 0-1.969l5.6-5.6a1.349 1.349 0 0 1 1.969 0Zm3.237-15.838c0 .788-.612 1.4-1.4 1.4-.787 0-1.4-.612-1.4-1.4 0-.787.613-1.4 1.4-1.4.744 0 1.4.613 1.4 1.4Z" clip-rule="evenodd"/></svg>
